outputs/icons/action/history_round.svg

<svg xmlns="http://www.w3.org/2000/svg" width="1200" height="1200" fill="none"><g clip-path="url(#a)"><path fill="#000" d="M663 150.004c-254.498-7-462.999 197.5-462.999 450.001h-89.499c-22.501 0-33.5 27-17.5 42.5l139.499 140c10.001 10 25.501 10 35.501 0l139.499-140c15.5-15.5 4.501-42.5-18-42.5h-89.5c0-195.001 159.001-352.501 354.999-350.001 186 2.5 342.5 159 345 345.001 2.5 195.5-155 355-350 355-80.5 0-154.999-27.5-213.999-74-20-15.5-47.999-14-65.999 4-21 21-19.5 56.5 4 74.5 76 60 171.498 95.5 275.998 95.5 252.5 0 457-208.5 450-463-6.5-234.502-202.5-430.501-437-437.001m-25.5 249.999c-20.5 0-37.5 17.001-37.5 37.5v184.002c0 17.5 9.5 34 24.5 43l156 92.5c18 10.5 41 4.5 51.5-13 10.5-18 4.5-41-13-51.5l-144-85.5V437.003c0-19.999-17-37-37.5-37"/></g><defs><clipPath id="a"><path fill="#fff" d="M0 0h1200v1200H0z"/></clipPath></defs></svg>

<svg width="1200" height="1200" viewBox="0 0 1200 1200" fill="none" xmlns="http://www.w3.org/2000/svg"><g clip-path="url(#clip0_223_1892)"><path d="M663 150.004C408.502 143.004 200.001 347.504 200.001 600.005H110.502C88.001 600.005 77.002 627.005 93.002 642.505L232.501 782.505C242.502 792.505 258.002 792.505 268.002 782.505L407.501 642.505C423.001 627.005 412.002 600.005 389.501 600.005H300.001C300.001 405.004 459.002 247.504 655 250.004C841 252.504 997.5 409.004 1000 595.005C1002.5 790.505 845 950.005 650 950.005C569.5 950.005 495.001 922.505 436.001 876.005C416.001 860.505 388.002 862.005 370.002 880.005C349.002 901.005 350.502 936.505 374.002 954.505C450.002 1014.505 545.5 1050.005 650 1050.005C902.5 1050.005 1107 841.505 1100 587.005C1093.5 352.503 897.5 156.504 663 150.004ZM637.5 400.003C617 400.003 600 417.004 600 437.503V621.505C600 639.005 609.5 655.505 624.5 664.505L780.5 757.005C798.5 767.505 821.5 761.505 832 744.005C842.5 726.005 836.5 703.005 819 692.505L675 607.005V437.003C675 417.004 658 400.003 637.5 400.003Z" fill="black"/></g><defs><clipPath id="clip0_223_1892"><path width="24" fill="white" d="M0 0H1200V1200H0V0z"/></clipPath></defs></svg>
